X: 38811
T: Sugar's In The Spotty One, The
R: polka
M: 2/4
K: Gmajor
L: 1/16
|:"G"gdBd "C"ecAc|"G"B2G2 "G/B"GFGB|"D"c2A2 F2A2|"G"GABc "D"d2d2|
"G"gdBd "C"ecAc|"G"B2G2 "G/B"GFGB|"D"c2A2 F2A2|1 "G"G6 d2:|2 "G"G6 g2||
|:"D"FGAB c2A2|"G"GABc d2G2|"D"FGAB c2A2|"A"B2^c2 "D"d4|
"D"FGAB c2A2|"G"GABc "G/B"d2g2|"C"ecAc "D"B2A2|"G"G6 G2:|

